X:6
T:Emma
M:3/4
L:1/4
Q:1/4=160
S:arr. Eira Mattsson (Washington DC Finlandia Foundation) ~1976
R:waltz
K:Em
|: B, | "Em" B B B | G E G | B B B | G E G |
"B7" F F>F | A G F |[1 "Em" E2 G | B2 :|[2 "Em" E2 E | E2 || !
|: B | "Am" e e>e | e d c | "Em" B B>B | B A G |
"B7" F F>F | A G F |[1 "Em" E2 G | B2 :|[2 "Em" E2 E | E2 ||

